src/assets/background/bubbles/home1_hero.svg

<svg width="1267" height="743" fill="none" xmlns="http://www.w3.org/2000/svg">
	<path d="M1249.55 184.986c36.02-82.639 6.09-157.757-13.38-184.986H0v501.363c24.199 64.111 88.414 210.486 236.446 234.69 166.651 27.248 278.625-30.687 334.593-86.442 55.969-55.755 134.366-138.389 273.758-188.444 186.563-66.992 359.743-172.883 404.753-276.181Z" fill="url(#a)"/>
	<path d="M1196.79 177.118c34.49-79.124 5.83-151.047-12.82-177.118H0v480.04c23.177 61.384 84.68 201.534 226.462 224.708 159.614 26.089 266.859-29.381 320.464-82.765 53.605-53.384 128.692-132.503 262.199-180.429 178.683-64.143 344.545-165.531 387.665-264.436Z" fill="url(#b)"/>
	<defs>
		<linearGradient id="a" x1="579.915" y1="154.016" x2="884.629" y2="869.443" gradientUnits="userSpaceOnUse">
			<stop stop-color="#EBEDFF"/>
			<stop offset="1" stop-color="#fff" stop-opacity="0"/>
		</linearGradient>
		<linearGradient id="b" x1="555.427" y1="147.466" x2="847.117" y2="832.533" gradientUnits="userSpaceOnUse">
			<stop stop-color="#E4E7FF"/>
			<stop offset="1" stop-color="#fff" stop-opacity="0"/>
		</linearGradient>
	</defs>
</svg>

<svg width="1267" height="743" viewBox="0 0 1267 743" fill="none" xmlns="http://www.w3.org/2000/svg">
<path d="M1249.55 184.986C1285.57 102.347 1255.64 27.2292 1236.17 0H0V501.363C24.1989 565.474 88.4137 711.849 236.446 736.053C403.097 763.301 515.071 705.366 571.039 649.611C627.008 593.856 705.405 511.222 844.797 461.167C1031.36 394.175 1204.54 288.284 1249.55 184.986Z" fill="url(#paint0_linear_91_46)"/>
<path d="M1196.79 177.118C1231.28 97.9944 1202.62 26.0711 1183.97 0H0V480.04C23.177 541.424 84.6803 681.574 226.462 704.748C386.076 730.837 493.321 675.367 546.926 621.983C600.531 568.599 675.618 489.48 809.125 441.554C987.808 377.411 1153.67 276.023 1196.79 177.118Z" fill="url(#paint1_linear_91_46)"/>
<defs>
<linearGradient id="paint0_linear_91_46" x1="579.915" y1="154.016" x2="884.629" y2="869.443" gradientUnits="userSpaceOnUse">
<stop stop-color="#EBEDFF"/>
<stop offset="1" stop-color="white" stop-opacity="0"/>
</linearGradient>
<linearGradient id="paint1_linear_91_46" x1="555.427" y1="147.466" x2="847.117" y2="832.533" gradientUnits="userSpaceOnUse">
<stop stop-color="#E4E7FF"/>
<stop offset="1" stop-color="white" stop-opacity="0"/>
</linearGradient>
</defs>
</svg>
